svg/regular/bx-archive-out.svg

<svg xmlns="http://www.w3.org/2000/svg" width="24" height="24"><path d="m21.706 5.292-2.999-2.999A.996.996 0 0 0 18 2H6a.996.996 0 0 0-.707.293L2.294 5.292A.994.994 0 0 0 2 6v13c0 1.103.897 2 2 2h16c1.103 0 2-.897 2-2V6a.994.994 0 0 0-.294-.708zM6.414 4h11.172l1 1H5.414l1-1zM4 19V7h16l.002 12H4z"/><path d="M7 14h3v3h4v-3h3l-5-5z"/></svg>

<svg xmlns="http://www.w3.org/2000/svg" width="24" height="24" viewBox="0 0 24 24"><path d="M21.706,5.292l-2.999-2.999C18.52,2.105,18.266,2,18,2H6C5.734,2,5.48,2.105,5.293,2.293L2.294,5.292 C2.112,5.473,2,5.723,2,6v13c0,1.103,0.897,2,2,2h16c1.103,0,2-0.897,2-2V6C22,5.723,21.888,5.473,21.706,5.292z M6.414,4h11.172 l1,1H5.414L6.414,4z M4,19V7h16l0.002,12H4z"/><path d="M7 14L10 14 10 17 14 17 14 14 17 14 12 9z"/></svg>
